svgs/sharp-regular/chess-rook-piece.svg

<svg xmlns="http://www.w3.org/2000/svg" viewBox="0 0 320 512"><!--! Font Awesome Pro 6.6.0 by @fontawesome - https://fontawesome.com License - https://fontawesome.com/license (Commercial License) Copyright 2024 Fonticons, Inc. --><path d="M16 96l24 0 240 0 24 0 0 24 0 104 0 8.7-5.6 6.7-33.9 40.7 4.2 71.9-48.1 0L216 273.4l-.6-9.5 6.1-7.3L256 215.3l0-71.3-40 0 0 16 0 16-32 0 0-16 0-16-48 0 0 16 0 16-32 0 0-16 0-16-40 0 0 71.3 34.4 41.3 6.1 7.3-.6 9.5L99.3 352l-48.1 0 4.2-71.9L21.6 239.4 16 232.7l0-8.7 0-104 0-24zM136 248c0-13.3 10.7-24 24-24s24 10.7 24 24l0 40-48 0 0-40zM53.8 464l212.5 0-17.8-32L71.5 432 53.8 464zM320 461.9l0 2.1 0 48-48 0L48 512 0 512l0-48 0-2.1L43.3 384l233.4 0L320 461.9z"/></svg>

<svg xmlns="http://www.w3.org/2000/svg" viewBox="0 0 320 512"><!--! Font Awesome Pro 6.4.2 by @fontawesome - https://fontawesome.com License - https://fontawesome.com/license (Commercial License) Copyright 2023 Fonticons, Inc. --><path d="M16 96H40 280h24v24V224v8.7l-5.6 6.7-33.9 40.7 4.2 71.9H220.7L216 273.4l-.6-9.5 6.1-7.3L256 215.3V144H216v16 16H184V160 144H136v16 16H104V160 144H64v71.3l34.4 41.3 6.1 7.3-.6 9.5L99.3 352H51.3l4.2-71.9L21.6 239.4 16 232.7V224 120 96zM136 248c0-13.3 10.7-24 24-24s24 10.7 24 24v40H136V248zM53.8 464H266.2l-17.8-32H71.5L53.8 464zM320 461.9V464v48H272 48 0V464v-2.1L43.3 384H276.7L320 461.9z"/></svg>
